!!key: tele-40-2-Fan-All-2-Flute
!!!COM: Telemann, Georg Philipp
!!!CDT: 1681/03/14-1767/06/25
!!!CBL: Magdeburg
!!!CDL: Hamburg
!!!CNT: German
!!!TWV: 40:2
!!!TWV-genre: 40
!!!TWV-work: 2
!!!OPR: 12 Fantasias for transverse flute without bass
!!!OTL: Fantasia 1
!!!OMD: Allegro
!!!OMV: 2
!!!ODT: ca. 1732–1733
!!!AST: Late Baroque
!!!AGN: Fantasia
!!!AMT: Simple triple or Compound one
!!!AIN: Transverse flute
**kern
*ICww
*Iflt
*>[A,A,B,B1,B,B2]
*>norep[A,B,B2]
*clefG2
*k[f#c#g#]
*A:
*M3/8
=1
*>A
16cc#LL
16dd
16ee
16cc#
16dd
16bJJ
=2
16aLL
16b
16a
16g#J
8aJ
=3
16bLL
16cc#
16dd
16eJ
8ddJ
=4
!TODO: trill +
8ddL
16cc#L
16bJ
8cc#J
=5
16ff#LL
16gg#
16aa
16cc#
16ff#
16eeJJ
!!LO:LB:g=original
=6
16dd#XLL
16ee
16ff#
16dd#
16b
16aJJ
=7
16g#LL
16eeJJ
8f#L
8dd#XJ
=8
16e\LL
16g#
16b
16ee
16dd#X
16eeJJ
=9
16e\LL
16a
16cc#
16ee
16dd#X
16eeJJ
=10
16e\LL
16g#
16b
16ee
16dd#X
16eeJJ
!!LO:LB:g=original
=11
16g#LL
16eeJJ
8f#L
8dd#XJ
=12
8eeLL
8eJJ
8r
=13:|!|:
*>B
16ddLL
16ee
16ff#
16dd
16ee
16cc#JJ
=14
8ddL
8cc#
8bJ
=15
16cc#LL
16dd
16ee
16cc#
16dd
16bJJ
=16
8cc#L
8b
8aJ
!!LO:LB:g=original
=17
16ff#LL
16ee
16ff#
16dd
16cc#
16ddJJ
=18
16aaLL
16gg#
16aa
16cc#
16b
16aJJ
=19
8bL
8e
8g#J
=20
16aLL
16cc#
16ee
16aa
16gg#
16aaJJ
=21
16aLL
16dd
16ff#
16aa
16gg#
16aaJJ
!!LO:LB:g=original
=22
16aLL
16cc#
16ee
16aa
16gg#
16aaJJ
=23
16ff#LL
16ee
16ff#
16dd
16cc#
16ddJJ
=24
16aaLL
16gg#
16aa
16cc#
16b
16aJJ
=25
8bL
8e
8g#J
=26
*>B1
8.a/L
16cc#L
16b
16aJJ
=27:|!
*>B2
4.a
==
*-
!!!RTL1: G. PH. Telemann: Twelve Fantasias for Flute without Bass TWV 40:2-13
!!!RPN1: D'Arcangelo, Rita
!!!RMM1: Da Vinci Classics
!!!RC#1: DV-C00440
!!!RRD1: 2022
!!!RLC1: Andreaskirche, Berlin, Germany
!!!RDT1: 16 September 2020, 17 September 2020
!!!RT#1: 1
!!!RTL2: The Telemann Files: 12 Fantasies for Solo Flute
!!!RPN2: Choi, Jasmine
!!!RMM2: Austrian Gramophone
!!!RC#2: AG0001
!!!RRD2: February 2015
!!!RLC2: LeFrak Hall, Queens, USA
!!!RDT2: 9 June 2014, 10 June 2014
!!!RT#2: 1
!!!RTL3: Georg Philipp Telemann: Twelve Fantasies for Flute
!!!RPN3: Robertello, Thomas
!!!RMM3: Delos
!!!RC#3: DE3396
!!!RRD3: 1 June 2009
!!!RLC3: Clear Creek Recording, Keene, California
!!!RDT3: Unknown
!!!RT#3: 1
